;FLAVOR:Marlin
;TIME:3337
;Filament used: 2.076m
;Layer height: 0.1
;MINX:40.867
;MINY:43.45
;MINZ:0.3
;MAXX:66.147
;MAXY:71.176
;MAXZ:49.9
;TARGET_MACHINE.NAME:Unknown
;Generated with Cura_SteamEngine 5.10.2
M104 S200
M105
M109 S200
G28 ;Home
G1 Z15.0 F6000 ;Move the platform down 15mm
;Prime the extruder
G92 E0
G1 F200 E3
G92 E0
M82 ;absolute extrusion mode
G92 E0
G92 E0
G1 F1500 E-6.5
;LAYER_COUNT:497
;LAYER:0
M107
G0 F3600 X46.041 Y53.926 Z0.3
;TYPE:SKIRT
G1 F1500 E0
G1 F1800 X48.351 Y52.89 E0.12631
G1 X51.051 Y52.754 E0.26118
G1 X52.793 Y53.21 E0.35102
G1 X53.435 Y53.046 E0.38408
G1 X55.217 Y52.943 E0.47313
G1 X56.486 Y53.187 E0.5376
G1 X58.093 Y53.032 E0.61814
G1 X60.012 Y53.382 E0.71546
G1 X60.731 Y53.686 E0.75441
G1 X61.874 Y54.052 E0.81428
G1 X63.731 Y55.369 E0.92787
G1 X65.013 Y57.007 E1.03164
G1 X65.469 Y57.795 E1.07706
G1 X66.147 Y60.065 E1.19525
G1 X66.088 Y62.278 E1.3057
G1 X65.35 Y64.653 E1.42978
G1 X64.072 Y66.413 E1.53829
G1 X63.073 Y67.29 E1.60461
G1 X62.402 Y67.775 E1.64592
G1 X61.87 Y68.178 E1.67922
G1 X60.15 Y69.249 E1.7803
G1 X58.556 Y69.962 E1.86742
G1 X57.738 Y70.259 E1.91084
G1 X56.587 Y70.631 E1.97119
G1 X55.162 Y70.947 E2.04401
G1 X52.673 Y71.176 E2.16871
G1 X50.203 Y71.079 E2.29203
G1 X49.296 Y70.928 E2.33791
G1 X47.329 Y70.462 E2.43876
G1 X45.113 Y69.632 E2.55681
G1 X43.061 Y68.212 E2.68131
G1 X41.566 Y66.02 E2.81368
G1 X41.239 Y65.194 E2.858
G1 X40.871 Y63.524 E2.94332
G1 X40.867 Y61.521 E3.04325
G1 X41.397 Y59.622 E3.14161
G1 X42.174 Y58.253 E3.22015
G1 X43.122 Y56.936 E3.3011
G1 X44.475 Y55.225 E3.40993
G1 X46.041 Y53.926 E3.51144
G0 F3600 X46.254 Y54.269
G1 F1800 X48.448 Y53.285 E3.6314
G1 X51.008 Y53.156 E3.75928
G1 X52.701 Y53.599 E3.84659
G1 X52.941 Y53.586 E3.85858
G1 X53.501 Y53.443 E3.88742
G1 X55.189 Y53.345 E3.97177
G1 X56.373 Y53.57 E4.0319
G1 X56.447 Y53.592 E4.03575
G1 X58.077 Y53.435 E4.11745
G1 X59.896 Y53.767 E4.2097
G1 X60.596 Y54.063 E4.24762
G1 X61.695 Y54.415 E4.30519
G1 X63.45 Y55.66 E4.41254
G1 X64.698 Y57.254 E4.51354
G1 X65.099 Y57.955 E4.55383
G1 X65.745 Y60.117 E4.6664
G1 X65.689 Y62.212 E4.77096
G1 X64.988 Y64.471 E4.88897
G1 X63.775 Y66.141 E4.99194
G1 X62.809 Y66.989 E5.05607
G1 X62.168 Y67.451 E5.09549
G1 X61.658 Y67.839 E5.12746
G1 X59.986 Y68.884 E5.22583
G1 X58.419 Y69.586 E5.31149
G1 X57.601 Y69.883 E5.35491
G1 X56.5 Y70.24 E5.41266
G1 X55.075 Y70.556 E5.48548
G1 X52.689 Y70.776 E5.60502
G1 X50.219 Y70.679 E5.72834
G1 X49.388 Y70.539 E5.77039
G1 X47.469 Y70.087 E5.86875
G1 X45.3 Y69.275 E5.98429
G1 X43.348 Y67.924 E6.10273
G1 X41.923 Y65.835 E6.22889
G1 X41.63 Y65.108 E6.26799
G1 X41.271 Y63.478 E6.35126
G1 X41.267 Y61.575 E6.4462
G1 X41.769 Y59.777 E6.53934
G1 X42.499 Y58.487 E6.61328
G1 X43.436 Y57.184 E6.69335
G1 X44.764 Y55.505 E6.80015
G1 X46.254 Y54.269 E6.89674
G0 F3600 X46.467 Y54.612
G1 F1800 X48.545 Y53.68 E7.01036
G1 X50.965 Y53.558 E7.13125
G1 X52.658 Y54.001 E7.21856
G1 X53.007 Y53.983 E7.23599
G1 X53.524 Y53.842 E7.26273
G1 X55.162 Y53.747 E7.34458
G1 X56.261 Y53.954 E7.40038
G1 X56.409 Y53.997 E7.40807
G1 X58.061 Y53.838 E7.49087
G1 X59.78 Y54.152 E7.57805
G1 X60.461 Y54.44 E7.61493
G1 X61.516 Y54.778 E7.6702
G1 X63.171 Y55.952 E7.77144
G1 X64.351 Y57.453 E7.86669
G1 X64.729 Y58.114 E7.90468
G1 X65.343 Y60.169 E8.01168
G1 X65.29 Y62.147 E8.1104
G1 X64.626 Y64.288 E8.22224
G1 X63.478 Y65.869 E8.31971
G1 X62.545 Y66.688 E8.38165
G1 X61.925 Y67.133 E8.41972
G1 X61.445 Y67.5 E8.44987
G1 X59.822 Y68.519 E8.54548
G1 X58.255 Y69.221 E8.63114
G1 X57.477 Y69.503 E8.67243
G1 X56.413 Y69.849 E8.72825
G1 X54.988 Y70.165 E8.80107
G1 X52.704 Y70.376 E8.9155
G1 X50.285 Y70.284 E9.03627
G1 X49.479 Y70.149 E9.07705
G1 X47.609 Y69.712 E9.17285
G1 X45.487 Y68.918 E9.28589
G1 X43.635 Y67.636 E9.39826
G1 X42.28 Y65.649 E9.51825
G1 X42.021 Y65.022 E9.5521
G1 X41.671 Y63.432 E9.63332
G1 X41.667 Y61.629 E9.72327
G1 X42.141 Y59.933 E9.81113
G1 X42.824 Y58.72 E9.88058
G1 X43.75 Y57.432 E9.95972
G1 X45.053 Y55.785 E10.0645
G1 X46.467 Y54.612 E10.15615
G0 F3600 X46.68 Y54.955
G1 F1800 X48.642 Y54.075 E10.26343
G1 X50.922 Y53.96 E10.37733
G1 X52.455 Y54.361 E10.45638
G1 X52.568 Y54.406 E10.46245
G1 X53.07 Y54.381 E10.48753
G1 X53.592 Y54.238 E10.51453
G1 X55.136 Y54.149 E10.59169
G1 X56.149 Y54.338 E10.6431
G1 X56.293 Y54.38 E10.65058
G1 X56.728 Y54.368 E10.67229
G1 X58.045 Y54.241 E10.7383
G1 X59.664 Y54.537 E10.82041
G1 X60.326 Y54.817 E10.85627
G1 X61.335 Y55.14 E10.90913
G1 X62.892 Y56.245 E11.00438
G1 X64.004 Y57.652 E11.09385
G1 X64.359 Y58.273 E11.12954
G1 X64.941 Y60.221 E11.23097
G1 X64.891 Y62.082 E11.32385
G1 X64.264 Y64.105 E11.42952
G1 X63.181 Y65.597 E11.52149
G1 X62.281 Y66.387 E11.58124
G1 X61.681 Y66.816 E11.61804
G1 X61.232 Y67.161 E11.64629
G1 X59.609 Y68.18 E11.7419
G1 X58.119 Y68.845 E11.8233
G1 X57.353 Y69.123 E11.86396
G1 X56.326 Y69.458 E11.91785
G1 X54.901 Y69.774 E11.99067
G1 X52.719 Y69.976 E12.1
G1 X50.351 Y69.889 E12.21822
G1 X49.569 Y69.759 E12.25777
G1 X47.749 Y69.337 E12.35097
G1 X45.674 Y68.561 E12.4615
G1 X43.922 Y67.348 E12.56781
G1 X42.634 Y65.459 E12.68188
G1 X42.412 Y64.936 E12.71022
G1 X42.071 Y63.386 E12.7894
G1 X42.067 Y61.683 E12.87437
G1 X42.513 Y60.089 E12.95694
G1 X43.173 Y58.916 E13.02409
G1 X44.064 Y57.68 E13.10011
G1 X45.342 Y56.065 E13.20286
G1 X46.68 Y54.955 E13.28959
G0 F3600 X46.893 Y55.298
G1 F1800 X48.739 Y54.47 E13.39053
G1 X50.879 Y54.362 E13.49743
G1 X52.308 Y54.733 E13.57109
G1 X52.52 Y54.817 E13.58246
G1 X52.826 Y54.773 E13.59789
G1 X53.117 Y54.783 E13.61241
G1 X53.66 Y54.634 E13.6405
G1 X55.11 Y54.551 E13.71296
G1 X56.036 Y54.722 E13.75994
G1 X56.24 Y54.782 E13.77055
G1 X56.749 Y54.768 E13.79596
G1 X58.029 Y54.644 E13.86011
G1 X59.548 Y54.922 E13.93716
G1 X60.191 Y55.194 E13.97199
G1 X61.156 Y55.503 E14.02254
G1 X62.613 Y56.537 E14.11167
G1 X63.657 Y57.851 E14.1954
G1 X63.99 Y58.433 E14.22886
G1 X64.539 Y60.272 E14.32461
G1 X64.492 Y62.017 E14.4117
G1 X63.902 Y63.922 E14.51119
G1 X62.884 Y65.325 E14.59767
G1 X62.017 Y66.086 E14.65522
G1 X61.449 Y66.49 E14.69
G1 X61.019 Y66.822 E14.7171
G1 X59.396 Y67.841 E14.81271
G1 X57.957 Y68.479 E14.89124
G1 X57.229 Y68.743 E14.92988
G1 X56.239 Y69.067 E14.98185
G1 X54.814 Y69.383 E15.05467
G1 X52.733 Y69.576 E15.15893
G1 X50.416 Y69.494 E15.2746
G1 X49.659 Y69.369 E15.31288
G1 X47.889 Y68.962 E15.40349
G1 X45.861 Y68.204 E15.5115
G1 X44.209 Y67.06 E15.61175
G1 X42.986 Y65.267 E15.72004
G1 X42.803 Y64.85 E15.74275
G1 X42.471 Y63.34 E15.81989
G1 X42.467 Y61.737 E15.89986
G1 X42.885 Y60.243 E15.97726
G1 X43.497 Y59.15 E16.03976
G1 X44.378 Y57.928 E16.11491
G1 X45.631 Y56.345 E16.21564
G1 X46.893 Y55.298 E16.29745
G0 F3600 X47.106 Y55.641
G1 F1800 X48.836 Y54.865 E16.39204
G1 X50.836 Y54.764 E16.49195
G1 X52.207 Y55.12 E16.56262
G1 X52.468 Y55.229 E16.57673
G1 X52.883 Y55.169 E16.59765
G1 X53.161 Y55.186 E16.61154
G1 X53.728 Y55.03 E16.64088
G1 X55.085 Y54.953 E16.70869
G1 X55.923 Y55.106 E16.75119
G1 X56.175 Y55.18 E16.76429
G1 X56.629 Y55.196 E16.78696
G1 X56.819 Y55.162 E16.79659
G1 X58.013 Y55.047 E16.85643
G1 X59.432 Y55.307 E16.92841
G1 X60.056 Y55.571 E16.96221
G1 X60.975 Y55.865 E17.01035
G1 X62.336 Y56.831 E17.09361
G1 X63.31 Y58.05 E17.17146
G1 X63.621 Y58.593 E17.20268
G1 X64.137 Y60.323 E17.29274
G1 X64.093 Y61.952 E17.37404
G1 X63.54 Y63.739 E17.46737
G1 X62.587 Y65.053 E17.54835
G1 X61.753 Y65.785 E17.60371
G1 X61.204 Y66.174 E17.63728
G1 X60.806 Y66.483 E17.66242
G1 X59.183 Y67.502 E17.75803
G1 X57.821 Y68.103 E17.8323
G1 X57.104 Y68.363 E17.87035
G1 X56.152 Y68.676 E17.92035
G1 X54.727 Y68.992 E17.99317
G1 X52.747 Y69.176 E18.09238
G1 X50.481 Y69.099 E18.20549
G1 X49.749 Y68.979 E18.2425
G1 X47.979 Y68.572 E18.33311
G1 X46.05 Y67.848 E18.4359
G1 X44.496 Y66.772 E18.5302
G1 X43.316 Y65.042 E18.63468
G1 X43.194 Y64.764 E18.64983
G1 X42.871 Y63.294 E18.72491
G1 X42.867 Y61.791 E18.7999
G1 X43.257 Y60.396 E18.87216
G1 X43.821 Y59.384 E18.92997
G1 X44.692 Y58.176 E19.00426
G1 X45.92 Y56.625 E19.10296
G1 X47.106 Y55.641 E19.17984
G0 F3600 X47.321 Y55.983
G1 F1800 X48.933 Y55.26 E19.26799
G1 X50.795 Y55.166 E19.361
G1 X52.053 Y55.489 E19.4258
G1 X52.42 Y55.642 E19.44564
G1 X52.859 Y55.568 E19.46785
G1 X53.208 Y55.589 E19.48529
G1 X53.751 Y55.429 E19.51353
G1 X55.056 Y55.355 E19.57874
G1 X55.851 Y55.5 E19.61906
G1 X56.109 Y55.578 E19.63251
G1 X56.659 Y55.598 E19.65996
G1 X56.857 Y55.56 E19.67002
G1 X57.997 Y55.45 E19.72716
G1 X59.316 Y55.692 E19.79407
G1 X59.921 Y55.948 E19.82684
G1 X60.796 Y56.228 E19.87267
G1 X62.056 Y57.122 E19.94975
G1 X62.997 Y58.3 E20.02497
G1 X63.252 Y58.754 E20.05095
G1 X63.735 Y60.374 E20.13529
G1 X63.694 Y61.888 E20.21085
G1 X63.178 Y63.556 E20.29796
G1 X62.29 Y64.781 E20.37344
G1 X61.489 Y65.484 E20.42661
G1 X60.957 Y65.859 E20.45908
G1 X60.593 Y66.144 E20.48215
G1 X58.97 Y67.163 E20.57776
G1 X57.685 Y67.727 E20.64777
G1 X56.979 Y67.983 E20.68523
G1 X56.065 Y68.285 E20.73326
G1 X54.64 Y68.601 E20.80608
G1 X52.76 Y68.776 E20.90028
G1 X50.546 Y68.704 E21.01079
G1 X49.814 Y68.584 E21.0478
G1 X48.12 Y68.198 E21.13448
G1 X46.239 Y67.492 E21.23472
G1 X44.783 Y66.484 E21.32307
G1 X43.646 Y64.817 E21.42374
G1 X43.585 Y64.678 E21.43131
G1 X43.271 Y63.248 E21.50435
G1 X43.267 Y61.845 E21.57435
G1 X43.629 Y60.551 E21.64139
G1 X44.146 Y59.618 E21.6946
G1 X45.006 Y58.424 E21.76801
G1 X46.207 Y56.908 E21.86451
G1 X47.321 Y55.983 E21.93674
G0 F3600 X47.534 Y56.326
G1 F1800 X49.03 Y55.655 E22.01854
G1 X50.754 Y55.568 E22.10466
G1 X51.953 Y55.876 E22.16643
G1 X52.376 Y56.058 E22.1894
G1 X52.835 Y55.967 E22.21274
G1 X53.256 Y55.992 E22.23379
G1 X53.822 Y55.825 E22.26323
G1 X55.027 Y55.757 E22.32344
G1 X55.779 Y55.894 E22.36157
G1 X56.042 Y55.976 E22.37532
G1 X56.691 Y56 E22.40772
G1 X56.896 Y55.958 E22.41816
G1 X57.981 Y55.853 E22.47254
G1 X59.2 Y56.077 E22.53438
G1 X59.786 Y56.325 E22.56612
G1 X60.617 Y56.591 E22.60965
G1 X61.776 Y57.413 E22.68054
G1 X62.684 Y58.55 E22.75314
G1 X62.882 Y58.913 E22.77377
G1 X63.333 Y60.425 E22.85249
G1 X63.295 Y61.824 E22.92231
G1 X62.816 Y63.373 E23.0032
G1 X61.993 Y64.509 E23.07318
G1 X61.225 Y65.183 E23.12416
G1 X60.715 Y65.54 E23.15522
G1 X60.346 Y65.829 E23.1786
G1 X58.809 Y66.797 E23.26923
G1 X57.549 Y67.351 E23.33789
G1 X56.853 Y67.603 E23.37482
G1 X55.978 Y67.894 E23.42083
G1 X54.553 Y68.21 E23.49365
G1 X52.772 Y68.376 E23.58289
G1 X50.611 Y68.309 E23.69075
G1 X49.879 Y68.189 E23.72776
G1 X48.261 Y67.824 E23.81051
G1 X46.428 Y67.136 E23.90819
G1 X45.07 Y66.196 E23.99059
G1 X43.976 Y64.592 E24.08745
G1 X43.671 Y63.202 E24.15845
G1 X43.667 Y61.899 E24.22346
G1 X44.001 Y60.707 E24.28522
G1 X44.471 Y59.852 E24.33389
G1 X45.32 Y58.672 E24.40642
G1 X46.495 Y57.188 E24.50085
G1 X47.534 Y56.326 E24.56821
G0 F3600 X47.749 Y56.668
G1 F1800 X49.127 Y56.05 E24.64355
G1 X50.711 Y55.97 E24.72268
G1 X51.795 Y56.244 E24.77846
G1 X52.338 Y56.477 E24.80794
G1 X52.812 Y56.366 E24.83223
G1 X53.307 Y56.395 E24.85697
G1 X53.844 Y56.224 E24.88508
G1 X54.998 Y56.159 E24.94275
G1 X55.707 Y56.288 E24.9787
G1 X55.988 Y56.379 E24.99344
G1 X56.331 Y56.363 E25.01057
G1 X56.711 Y56.405 E25.02964
G1 X56.935 Y56.356 E25.04108
G1 X57.965 Y56.256 E25.09271
G1 X59.084 Y56.462 E25.14947
G1 X59.65 Y56.702 E25.18014
G1 X60.436 Y56.953 E25.22131
G1 X61.497 Y57.706 E25.28622
G1 X62.371 Y58.8 E25.35608
G1 X62.499 Y59.027 E25.36908
G1 X62.931 Y60.476 E25.44451
G1 X62.896 Y61.76 E25.5086
G1 X62.454 Y63.191 E25.58332
G1 X61.695 Y64.238 E25.64784
G1 X60.996 Y64.855 E25.69435
G1 X60.473 Y65.221 E25.7262
G1 X60.099 Y65.514 E25.7499
G1 X58.648 Y66.431 E25.83554
G1 X57.413 Y66.975 E25.90286
G1 X56.726 Y67.224 E25.93932
G1 X55.891 Y67.503 E25.98324
G1 X54.466 Y67.819 E26.05606
G1 X52.784 Y67.976 E26.14034
G1 X50.676 Y67.914 E26.24556
G1 X49.944 Y67.794 E26.28256
G1 X48.401 Y67.449 E26.36144
G1 X46.615 Y66.779 E26.45661
G1 X45.357 Y65.908 E26.53295
G1 X44.351 Y64.433 E26.62202
G1 X44.071 Y63.156 E26.68725
G1 X44.067 Y61.953 E26.74726
G1 X44.373 Y60.862 E26.8038
G1 X44.822 Y60.045 E26.85031
G1 X45.634 Y58.92 E26.91952
G1 X46.782 Y57.471 E27.01175
G1 X47.749 Y56.668 E27.07446
G0 F3600 X47.962 Y57.011
G1 F1800 X49.224 Y56.445 E27.14347
G1 X50.671 Y56.372 E27.21575
G1 X51.637 Y56.612 E27.26541
G1 X52.311 Y56.901 E27.302
G1 X52.788 Y56.765 E27.32674
G1 X53.359 Y56.799 E27.35528
G1 X53.919 Y56.62 E27.38461
G1 X54.969 Y56.561 E27.43708
G1 X55.635 Y56.682 E27.47085
G1 X55.932 Y56.782 E27.48648
G1 X56.349 Y56.763 E27.50731
G1 X56.731 Y56.811 E27.52652
G1 X56.974 Y56.754 E27.53897
G1 X57.948 Y56.659 E27.58779
G1 X58.968 Y56.847 E27.63954
G1 X59.514 Y57.079 E27.66914
G1 X60.257 Y57.316 E27.70804
G1 X61.217 Y57.997 E27.76677
G1 X62.058 Y59.05 E27.834
G1 X62.129 Y59.186 E27.84165
G1 X62.529 Y60.527 E27.91147
G1 X62.497 Y61.696 E27.96981
G1 X62.092 Y63.009 E28.03836
G1 X61.397 Y63.967 E28.09741
G1 X60.731 Y64.555 E28.14173
G1 X60.226 Y64.906 E28.17242
G1 X59.852 Y65.199 E28.19612
G1 X58.487 Y66.065 E28.27677
G1 X57.276 Y66.599 E28.3428
G1 X56.599 Y66.845 E28.37874
G1 X55.804 Y67.112 E28.42058
G1 X54.379 Y67.428 E28.4934
G1 X52.795 Y67.576 E28.57277
G1 X50.74 Y67.519 E28.67533
G1 X50.03 Y67.403 E28.71122
G1 X48.541 Y67.074 E28.7873
G1 X46.802 Y66.422 E28.87996
G1 X45.644 Y65.62 E28.95023
G1 X44.726 Y64.274 E29.03152
G1 X44.471 Y63.11 E29.09097
G1 X44.467 Y62.007 E29.14599
G1 X44.745 Y61.017 E29.1973
G1 X45.173 Y60.238 E29.24164
G1 X45.948 Y59.168 E29.30755
G1 X47.07 Y57.751 E29.39773
G1 X47.962 Y57.011 E29.45555
G0 F3600 X48.177 Y57.353
G1 F1800 X49.321 Y56.84 E29.5181
G1 X50.631 Y56.774 E29.58354
G1 X51.54 Y57 E29.63027
G1 X52.034 Y57.217 E29.65719
G1 X52.221 Y57.343 E29.66844
G1 X52.834 Y57.168 E29.70024
G1 X53.411 Y57.202 E29.72908
G1 X53.994 Y57.016 E29.75961
G1 X54.941 Y56.963 E29.80693
G1 X55.564 Y57.076 E29.83852
G1 X55.873 Y57.186 E29.85488
G1 X56.368 Y57.163 E29.8796
G1 X56.753 Y57.218 E29.89901
G1 X57.013 Y57.152 E29.91239
G1 X57.932 Y57.062 E29.95846
G1 X58.85 Y57.231 E30.00503
G1 X59.374 Y57.454 E30.03344
G1 X60.078 Y57.679 E30.07031
G1 X60.939 Y58.29 E30.12298
G1 X61.746 Y59.3 E30.18748
G1 X62.127 Y60.578 E30.25401
G1 X62.098 Y61.632 E30.30662
G1 X61.73 Y62.827 E30.369
G1 X61.099 Y63.696 E30.42258
G1 X60.466 Y64.255 E30.46471
G1 X59.979 Y64.591 E30.49423
G1 X59.605 Y64.884 E30.51793
G1 X58.325 Y65.699 E30.59364
G1 X57.139 Y66.223 E30.65833
G1 X56.471 Y66.466 E30.69379
G1 X55.717 Y66.721 E30.7335
G1 X54.292 Y67.037 E30.80632
G1 X52.806 Y67.176 E30.88078
G1 X50.751 Y67.119 E30.98334
G1 X50.115 Y67.012 E31.01552
G1 X48.681 Y66.699 E31.08875
G1 X46.989 Y66.065 E31.17889
G1 X45.931 Y65.332 E31.24311
G1 X45.101 Y64.115 E31.3166
G1 X44.871 Y63.064 E31.37027
G1 X44.867 Y62.061 E31.42032
G1 X45.117 Y61.172 E31.46639
G1 X45.524 Y60.431 E31.50857
G1 X46.262 Y59.416 E31.57118
G1 X47.357 Y58.034 E31.65914
G1 X48.177 Y57.353 E31.71232
G0 F3600 X48.39 Y57.696
G1 F1800 X49.418 Y57.235 E31.76853
G1 X50.591 Y57.176 E31.82712
G1 X51.444 Y57.388 E31.87098
G1 X51.869 Y57.581 E31.89426
G1 X52.142 Y57.781 E31.91115
G1 X52.88 Y57.571 E31.94943
G1 X53.463 Y57.606 E31.97857
G1 X54.069 Y57.412 E32.01031
G1 X54.913 Y57.365 E32.05248
G1 X55.493 Y57.47 E32.08189
G1 X55.81 Y57.591 E32.09882
G1 X56.312 Y57.559 E32.12391
G1 X56.775 Y57.625 E32.14725
G1 X57.111 Y57.54 E32.16454
G1 X57.916 Y57.465 E32.20487
G1 X58.732 Y57.615 E32.24627
G1 X59.234 Y57.829 E32.27349
G1 X59.899 Y58.042 E32.30833
G1 X60.659 Y58.581 E32.35481
G1 X61.386 Y59.491 E32.41292
G1 X61.725 Y60.629 E32.47216
G1 X61.699 Y61.568 E32.51903
G1 X61.368 Y62.645 E32.57524
G1 X60.801 Y63.425 E32.62335
G1 X60.201 Y63.955 E32.66329
G1 X59.74 Y64.27 E32.69114
